X:1
T:The God of Holiness and Love
T: Lowell Mason, 1839
T:The God of Holiness and Love
T:Public Domain
T:Public Domain
C:Lowell Mason, 1839
Z:Public Domain
%%score ( 1 2 ) ( 3 4 )
L:1/8
M:3/2
K:Eb
V:1 treble 
V:2 treble 
V:3 bass 
V:4 bass 
V:1
 E4 | [EG]3 [EG] [EG]2 [DF]2 [EG]2 [FA]2"^Music" | [GB]8 [EG]4 | %3
w: 1.~The|of ho- li- ness and love,|His faith-|
w: 2.~Oh,|sus’ light and bound- less grace!|How blest|
w: 3.~Yes,|sus di- ed upon the cross,|To some|
w: 4.~In|ce- les- tial home I’ll see|My bro-|
 [Ec]3 [Ec] [Ec]2 [EB]2 [DA]2 [EG]2 | [DF]8 [FB]4 | [Fd]2 [Gc]2 [FB]4 [E=A]4 | [DB]8 [GB]4 | %7
w: ful- ness I see a- bove,|Though I|am prone to sin;|But tri-|
w: was I to see His face,|His life|He did not spare;|This sin-|
w: it seems but pain and loss,|But He|the Lord o- beyed;|The Pot-|
w: thers, sis- ters, fa- mi- ly,|I long|for His re- ward;|Then Je-|
 [Ge]2 [GB]2 [GB]2 [EG]2 [EA]2 [Ac]2 | [GB]8 [GB]4 | [Ge]2 [GB]2 [GB]2 [EG]2 [EA]2 [Ac]2 | %10
w: umph- ing with His strong hand,|I know|with me He’ll e- ver stand,|
w: ner He in love did seek,|En- ab-|ling me His Word to speak,|
w: ter set- ting free His clay,|To li-|ve~a- bove in end- less day,|
w: sus will my soul em- brace,|A crown|of life my sins re- place,|
 [GB]8 E4 | [CF]2 [FA]2 [EG]4 [DF]4 x2 | E8 |] %13
w: Till I|Beu- lah Land. *||
w: I walk|child and heir. *||
w: With love|can- not fade. *||
w: As long|I be- lieve! *||
V:2
 E4 | x12 | x12 | x12 | x12 | x12 | x12 | x12 | x12 | x12 | x8 E4 | x14 | E8 |] %13
w: God||||||||||reach|||
w: Je-||||||||||as|||
w: Je-||||||||||that|||
w: that||||||||||as|||
V:3
 [E,G,]4 | [E,B,]3 [E,B,] [E,B,]2 [A,B,]2 [G,B,]2 [F,B,]2 | [E,B,]8 [E,B,]4 | %3
 A,3 A, A,2 [G,B,]2 [F,B,]2 [E,B,]2 | [B,,B,]8 [B,,D]4 | [B,,F]2 [E,E]2 [F,D]4 [F,C]4 | %6
 [B,,B,]8 [E,B,]4 | [E,B,]2 [E,E]2 [E,E]2 [E,B,]2 [C,C]2 [A,,E]2 | [E,E]8 [E,B,]4 | %9
 [E,B,]2 [E,E]2 [E,E]2 [E,B,]2 [C,C]2 [A,,E]2 | [E,E]8 [G,,B,]4 | [A,,A,]2 [A,,C]2 B,,4 z2 A,2 x2 | %12
 [E,G,]8 |] %13
V:4
 x4 | x12 | x12 | A,3 A, A,2 x6 | x12 | x12 | x12 | x12 | x12 | x12 | x12 | x4 B,6 B,,4 | x8 |] %13

